azure-patterns/svg-meter.svg

<svg xmlns="http://www.w3.org/2000/svg" viewBox="0 0 48 48">
                                
                            
    <path fill-rule="evenodd" clip-rule="evenodd" d="M43.2174 25.2246C42.8951 29.4286 41.221 33.2586 38.6277 36.2811L41.7889 39.4423C45.1775 35.6034 47.3424 30.6623 47.6785 25.2246H43.2174Z" fill="white"></path>
    <path fill-rule="evenodd" clip-rule="evenodd" d="M38.6365 11.1954C41.3811 14.396 42.9053 18.288 43.2092 22.259H47.6795C47.3615 17.1484 45.3985 12.1239 41.791 8.04126L38.6365 11.1954Z" fill="#50E6FF"></path>
    <path fill-rule="evenodd" clip-rule="evenodd" d="M25.4214 4.46102C29.6253 4.78338 33.4554 6.45747 36.4779 9.05077L39.6391 5.88954C35.8001 2.50093 30.8591 0.336079 25.4214 0V4.46102Z" fill="#0078D4"></path>
    <path fill-rule="evenodd" clip-rule="evenodd" d="M11.3906 9.04298C14.5912 6.29833 18.4832 4.7741 22.4542 4.4703V0C17.3436 0.317903 12.3191 2.28096 8.23608 5.8888L11.3906 9.04298Z" fill="#0078D4"></path>
    <path fill-rule="evenodd" clip-rule="evenodd" d="M4.65951 22.2587C4.98186 18.0548 6.65595 14.2247 9.24925 11.2022L6.08803 8.04102C2.69942 11.88 0.534565 16.821 0.198486 22.2587H4.65951Z" fill="#0078D4"></path>
    <path fill-rule="evenodd" clip-rule="evenodd" d="M28.3935 23.7461C28.3935 26.2043 26.4004 28.1974 23.9421 28.1974C21.4838 28.1974 19.4907 26.2043 19.4907 23.7461C19.4907 21.2878 21.4838 19.2947 23.9421 19.2947C26.4004 19.2947 28.3935 21.2878 28.3935 23.7461Z" fill="#50E6FF"></path>
    <path fill-rule="evenodd" clip-rule="evenodd" d="M24.8004 25.9248L21.6641 22.7885L31.9697 12.4832L35.1061 15.6192L24.8004 25.9248Z" fill="#50E6FF"></path>
</svg>

<svg xmlns="http://www.w3.org/2000/svg" viewBox="0 0 48 48"><path fill-rule="evenodd" clip-rule="evenodd" d="M43.217 25.225a19.205 19.205 0 0 1-4.59 11.056l3.162 3.161a23.64 23.64 0 0 0 5.89-14.217h-4.462z" fill="#fff"/><path fill-rule="evenodd" clip-rule="evenodd" d="M38.636 11.195A19.21 19.21 0 0 1 43.21 22.26h4.47a23.636 23.636 0 0 0-5.888-14.218l-3.154 3.154z" fill="#50E6FF"/><path fill-rule="evenodd" clip-rule="evenodd" d="M25.421 4.461a19.206 19.206 0 0 1 11.057 4.59l3.161-3.161A23.64 23.64 0 0 0 25.421 0v4.461zM11.39 9.043A19.208 19.208 0 0 1 22.455 4.47V0A23.636 23.636 0 0 0 8.236 5.889l3.155 3.154zM4.66 22.259a19.206 19.206 0 0 1 4.59-11.057L6.087 8.041a23.64 23.64 0 0 0-5.89 14.218H4.66z" fill="#0078D4"/><path fill-rule="evenodd" clip-rule="evenodd" d="M28.393 23.746a4.452 4.452 0 1 1-8.903 0 4.452 4.452 0 0 1 8.904 0z" fill="#50E6FF"/><path fill-rule="evenodd" clip-rule="evenodd" d="M24.8 25.925l-3.136-3.137L31.97 12.483l3.136 3.136L24.8 25.925z" fill="#50E6FF"/></svg>
